X: 11
T: This Is My Love, Do You Like Her?
R: jig
M: 6/8
L: 1/8
K: Edor
|: G2 F |E2 E E^DE | G3 GAB | A2 A A^GA | d3 ~e3 |
dBA G2 B | AFE D2 F | G2 E FED | E3 :|
|: EG/A/B |e2 e edB | d2 d def | e2 e edB | d3 B2 e |
dBG GdB | AFE DEF | GFE FED | E3 :|


Tune 6	Setting 6

